optimized/20/solid/phone.svg

<svg xmlns="http://www.w3.org/2000/svg" viewBox="0 0 20 20">
  <path fill-rule="evenodd" d="M2 3.5C2 2.67157 2.67157 2 3.5 2H4.64837C5.35142 2 5.96014 2.4883 6.11265 3.1746L6.82887 6.39757C7.00105 7.17238 6.53984 7.9472 5.77667 8.16525L4.84388 8.43176C4.4331 8.54913 4.20107 8.98665 4.36396 9.38159C5.53001 12.2087 7.79126 14.47 10.6184 15.636C11.0134 15.7989 11.4509 15.5669 11.5682 15.1561L11.8348 14.2233C12.0528 13.4602 12.8276 12.999 13.6024 13.1711L16.8254 13.8873C17.5117 14.0399 18 14.6486 18 15.3516V16.5C18 17.3284 17.3284 18 16.5 18H15C13.8514 18 12.7366 17.8509 11.6742 17.5705C7.16665 16.3809 3.61908 12.8334 2.42949 8.32576C2.14913 7.26341 2 6.14856 2 5V3.5Z" clip-rule="evenodd"/>
</svg>

<svg xmlns="http://www.w3.org/2000/svg" viewBox="0 0 20 20" fill="currentColor" aria-hidden="true">
  <path fill-rule="evenodd" d="M2 3.5A1.5 1.5 0 013.5 2h1.148a1.5 1.5 0 011.465 1.175l.716 3.223a1.5 1.5 0 01-1.052 1.767l-.933.267c-.41.117-.643.555-.48.95a11.542 11.542 0 006.254 6.254c.395.163.833-.07.95-.48l.267-.933a1.5 1.5 0 011.767-1.052l3.223.716A1.5 1.5 0 0118 15.352V16.5a1.5 1.5 0 01-1.5 1.5H15c-1.149 0-2.263-.15-3.326-.43A13.022 13.022 0 012.43 8.326 13.019 13.019 0 012 5V3.5z" clip-rule="evenodd"/>
</svg>
